X: 544
T: Shalom Aleichem
D: Andy Statman & David Grisman "Songs of our Fathers"
Z: John Chambers <jc:trillian.mit.edu>
M: C
L: 1/8
K: Dm
[|"Dm"A2 fe d2 d2 \
| "A7"^cd ed cB A2 \
|1 ^cc c2 "Dm"dc df \
| "A7"e4 a4 \
:|2 "Gm"G2 d2 ^c2 B{AB}G \
| "A7"A4 z4 
|"F"fg a2 a2 a2 \
| "C7"gf ef "A7"ga g2 \
| "Dm"fe de fa gf \
| "A7"e4 z4 
|"Gm"e2 g2 g2 g2 \
| "A7"gb ag "Dm"fe dA \
| f2 ed "A7"e2 d^c \
| "Dm"d4 z4 |]



